X: 25286
T: Man Of The House, The
R: reel
M: 4/4
K: Edorian
E2 BE GABG|E2 BE FDAD|E2 BE GABc|dBAF BEED|
E2 BE GABG|E2 BE FDAD|E2 BE GABc|dBAF BE E2||
efge fgaf|gfed Bded|efge fgaf|gfed Be e2|
ef (3gfe fgaf|gfed efga|bgaf gfed|edBA GBFB||

